X:1294
L:1/4
M:3/4
K:D
 A, | D2 B | A2 F/D/ | C2 D | E2 A, | C2 B | A2 =F | F3 | F2 A, | D2 B | A2 F/D/ | C2 D | E2 E | 
 F2 E/^D/ | D2 B, | E3 | E2 A, |]

